apps/www/public/images/index/products/realtime-dark.svg

<svg width="330" height="431" viewBox="0 0 330 431" fill="none" xmlns="http://www.w3.org/2000/svg">
<g clip-path="url(#clip0_401_8040)">
<path d="M-16.542 -9.64038L-16.542 447.813M-2.54197 -9.64038L-2.54195 447.813M11.4581 -9.64038L11.4581 447.813M25.4581 -9.64038L25.4581 447.813M39.4581 -9.64038L39.4581 447.813M53.4581 -9.64038L53.4581 447.813M67.4581 -9.64038L67.4582 447.813M81.4582 -9.64038L81.4582 447.813M95.4582 -9.64038L95.4582 447.813M109.458 -9.64038L109.458 447.813M123.458 -9.64038L123.458 447.813M137.458 -9.64038L137.458 447.813M151.458 -9.64038L151.458 447.813M165.458 -9.64038L165.458 447.813M179.458 -9.64038L179.458 447.813M193.458 -9.64038L193.458 447.813M207.458 -9.64038L207.458 447.813M221.458 -9.64038L221.458 447.813M235.458 -9.64038L235.458 447.813M249.458 -9.64038L249.458 447.813M263.458 -9.64038L263.458 447.813M277.458 -9.64038L277.458 447.813M291.458 -9.64038L291.458 447.813M305.458 -9.64038L305.459 447.813M319.459 -9.64038L319.459 447.813M333.459 -9.64038L333.459 447.813M347.459 -9.64038L347.459 447.813M361.459 -9.64038L361.459 447.813M375.459 -9.64038L375.459 447.813M440.615 0.656494H-16.8379M440.615 14.6565H-16.8379M440.615 28.6565H-16.8379M440.615 42.6566H-16.8379M440.615 56.6566H-16.8379M440.615 70.6566H-16.8379M440.615 84.6566H-16.8379M440.615 98.6566H-16.8379M440.615 112.657H-16.8379M440.615 126.657H-16.8379M440.615 140.657H-16.8379M440.615 154.657H-16.8379M440.615 168.657H-16.8379M440.615 182.657H-16.8379M440.615 196.657H-16.8379M440.615 210.657H-16.8379M440.615 224.657H-16.8379M440.615 238.657H-16.8379M440.615 252.657H-16.8379M440.615 266.657H-16.8379M440.615 280.657H-16.8379M440.615 294.657H-16.8379M440.615 308.657H-16.8379M440.615 322.657H-16.8379M440.615 336.657H-16.8379M440.615 350.657H-16.8379M440.615 364.657H-16.8379M440.615 378.657H-16.8379M440.615 392.657H-16.8379M440.615 406.657H-16.8379M440.615 420.657H-16.8379M440.615 434.657H-16.8379" stroke="#282828" stroke-width="0.5"/>
</g>
<defs>
<clipPath id="clip0_401_8040">
<rect width="330" height="430" fill="white" transform="translate(0 0.906494)"/>
</clipPath>
</defs>
</svg>

<svg xmlns="http://www.w3.org/2000/svg" width="330" height="431" fill="none" viewBox="0 0 330 431"><g clip-path="url(#a)"><path stroke="#282828" stroke-width=".5" d="M-16.542-9.64v457.453m14-457.453v457.453m14-457.453v457.453m14-457.453v457.453m14-457.453v457.453m14-457.453v457.453m14-457.453v457.453m14-457.453v457.453m14-457.453v457.453m14-457.453v457.453m14-457.453v457.453m14-457.453v457.453m14-457.453v457.453m14-457.453v457.453m14-457.453v457.453m14-457.453v457.453m14-457.453v457.453m14-457.453v457.453m14-457.453v457.453m14-457.453v457.453m14-457.453v457.453m14-457.453v457.453m14-457.453v457.453m14-457.453.001 457.453m14-457.453v457.453m14-457.453v457.453m14-457.453v457.453m14-457.453v457.453m14-457.453v457.453M440.615.656H-16.838m457.453 14H-16.838m457.453 14H-16.838m457.453 14H-16.838m457.453 14H-16.838m457.453 14H-16.838m457.453 14H-16.838m457.453 14H-16.838m457.453 14.001H-16.838m457.453 14H-16.838m457.453 14H-16.838m457.453 14H-16.838m457.453 14H-16.838m457.453 14H-16.838m457.453 14H-16.838m457.453 14H-16.838m457.453 14H-16.838m457.453 14H-16.838m457.453 14H-16.838m457.453 14H-16.838m457.453 14H-16.838m457.453 14H-16.838m457.453 14H-16.838m457.453 14H-16.838m457.453 14H-16.838m457.453 14H-16.838m457.453 14H-16.838m457.453 14H-16.838m457.453 14H-16.838m457.453 14H-16.838m457.453 14H-16.838m457.453 14H-16.838"/></g><defs><clipPath id="a"><path fill="#fff" d="M0 .906h330v430H0z"/></clipPath></defs></svg>
